src/assets/img/Home/icons/eth.svg

<svg width="35" height="36" viewBox="0 0 35 36" fill="none" xmlns="http://www.w3.org/2000/svg">
<g id="Icon">
<path id="Shape" d="M34.5874 17.6875C34.5874 27.2141 26.8647 34.9369 17.3382 34.9369C7.81162 34.9369 0.0888672 27.2141 0.0888672 17.6875C0.0888672 8.16098 7.81162 0.438232 17.3382 0.438232C26.8646 0.438232 34.5874 8.16098 34.5874 17.6875Z" fill="#262626"/>
<g id="Group" opacity="0.8">
<path id="Shape_2" d="M17.2828 9.68359L17.1763 10.0457V20.5539L17.2828 20.6603L22.1606 17.777L17.2828 9.68359Z" fill="#CAFF33"/>
<path id="Shape_3" d="M17.2831 9.68359L12.4053 17.777L17.2831 20.6603V15.56V9.68359Z" fill="#CAFF33"/>
<path id="Shape_4" d="M17.2832 22.2473L17.2231 22.3205V26.0637L17.2832 26.2391L22.1639 19.3655L17.2832 22.2473Z" fill="#CAFF33"/>
<path id="Shape_5" d="M17.2831 26.2391V22.2473L12.4053 19.3655L17.2831 26.2391Z" fill="#CAFF33"/>
<path id="Shape_6" d="M17.2832 20.6604L22.1609 17.7771L17.2832 15.5601V20.6604Z" fill="#CAFF33"/>
<path id="Shape_7" d="M12.4053 17.7771L17.283 20.6604V15.5601L12.4053 17.7771Z" fill="#CAFF33"/>
</g>
</g>
</svg>

<svg xmlns="http://www.w3.org/2000/svg" width="35" height="36" fill="none"><path fill="#262626" d="M34.587 17.688c0 9.526-7.722 17.249-17.249 17.249-9.526 0-17.25-7.723-17.25-17.25C.089 8.162 7.813.439 17.339.439c9.527 0 17.25 7.723 17.25 17.25Z"/><g fill="#CAFF33" opacity=".8"><path d="m17.283 9.684-.107.362v10.508l.107.106 4.878-2.883-4.878-8.093Z"/><path d="m17.283 9.684-4.878 8.093 4.878 2.883V9.684ZM17.283 22.247l-.06.073v3.744l.06.175 4.88-6.873-4.88 2.881Z"/><path d="M17.283 26.24v-3.993l-4.878-2.881 4.878 6.873ZM17.283 20.66l4.878-2.883-4.878-2.217v5.1ZM12.405 17.777l4.878 2.883v-5.1l-4.878 2.217Z"/></g></svg>
